X:1
T:Title
%%score { 1 | ( 2 3 ) }
L:1/8
Q:1/4=100
M:4/4
K:F
V:1 treble nm="Grand Piano"
V:2 bass 
V:3 bass 
V:1
 A2 A>A A2 A2 | [Ac]4 [FA]2 [CF]2 | [EG]2 [EG]2 [FA]2 [GB]2 | A6 z2 | A2 A>A A2 A2 | %5
w: William~J.~Kirkpatrick * * * *|||||
 [Ac]4 [FA]2 [CF]2 | [EG]2 [GB]2 [FA]2 [EG]2 | F6 z2 | [Fd]2 [Fd]>[Fd] [Fd]2 z2 | c2 c>c c2 z2 | %10
w: |||||
 [EB]2 [EB]>[EB] [EB]2 [EG]2 |[M:9/8] A3- A c2- c c2 |[M:4/4] d2 d>d d2 d2 | c2 c2 c2 A2 | %14
w: ||||
 [B,DG]2 [DGB]2 [CFA]2 [B,EG]2 | [A,F]6 z2 |] %16
w: ||
V:2
 [F,CF]2 [F,CF]>[F,CF] [F,CF]2 [F,CF]2 | [F,C]4 [F,C]2 [F,A,]2 | [C,C]2 [C,C]2 [C,C]2 [C,C]2 | %3
 [F,CF]6 z2 | [F,CF]2 [F,CF]>[F,CF] [F,CF]2 [F,CF]2 | [F,F]4 [F,C]2 [F,A,]2 | %6
 [C,C]2 [C,C]2 [C,C]2 [C,B,]2 | [F,A,]6 z2 | [B,,B,]2 [B,,B,]>[B,,B,] [B,,B,]2 z2 | %9
 [F,A,F]2 [F,A,F]>[F,A,F] [F,A,F]2 z2 | [C,G,]2 [C,G,]>[C,G,] [C,G,]2 [C,C]2 | %11
[M:9/8] .C6 z3[K:treble] |[M:4/4] [B,F]2 [B,F]>[B,F] [B,F]2 [B,F]2 | %13
 [F,A,F]2 [G,B,E]2 [A,CF]2[K:bass] [F,CF]2 | B,,2 B,,2 C,2 C,2 | F,,6 z2 |] %16
V:3
 x8 | x8 | x8 | x8 | x8 | x8 | x8 | x8 | x8 | x8 | x8 | %11
[M:9/8] [F,F]3- [F,F]- [F,A,F]2- [F,A,-F]/A,/[K:treble] [F,A,F]2 |[M:4/4] x8 | x6[K:bass] x2 | x8 | %15
 x8 |] %16

